!!!!SEGMENT: Ver3031-O_dolce_nocte.krn
!!!id: Ver3031
!!!AGN: Madrigal
!!!SCT: Slim (1972)
!!!voices: 4
!!!COM: Philippe Verdelot
!!!OTL: O dolce nocte
**kern	**kern	**kern	**kern
*part4	*part3	*part2	*part1
*staff4	*staff3	*staff2	*staff1
*I"Bassus	*I"Tenor	*I"Altus	*I"Superius
*I'B	*I'T	*I'A	*I'S
*clefF4	*clefGv2	*clefG2	*clefG2
*k[b-]	*k[b-]	*k[b-]	*k[b-]
*F:	*F:	*F:	*F:
*M2/1	*M2/1	*M2/1	*M2/1
*met(C|)	*met(C|)	*met(C|)	*met(C|)
=1	=1	=1	=1
0A	0e	0a	0cc#X
=2	=2	=2	=2
2A	2e	2a	2cc#i
2A	2e	2a	2cc#i
1B-y	1d	2f	1dd
.	.	2g	.
=3	=3	=3	=3
1A	1e	1a	1cc#i
2r	2r	2r	2r
2A	2e	2a	2cc#i
=4	=4	=4	=4
1A	2e	1a	1cc#i
.	1f	.	.
1B-y	.	1f	1dd
.	[2d	.	.
=5	=5	=5	=5
1G	2d]	1b-y	1dd
.	2.g	.	.
2G	.	2b-y	2dd
.	4f	.	.
2A	2e	2a	2cc
=6	=6	=6	=6
1B-y	1d	1f	1.b-y
1F	1c	1f	.
.	.	.	4a
.	.	.	4g
=7	=7	=7	=7
1F	2r	1f	1a
.	2c	.	.
2r	2.f	2r	2r
2F	.	2c	2a
.	4e	.	.
=8	=8	=8	=8
2F	2d	2.f	2a
2F	2c	.	2a
.	.	4e	.
2F	2.f	2d	2a
2F	.	2c	2a
.	4e	.	.
=9	=9	=9	=9
1.BB-y	2.d	2.f	2.b-y
.	4c	4e	4a
.	2.B-y	1d	2g
2BB-y	.	.	2f
.	4A	.	.
=10	=10	=10	=10
1C	2G	2c	2e
.	2c	2e	2.g
2D	2A	1d	.
.	.	.	4f
2BB-y	2B-y	.	[2f
=11	=11	=11	=11
1C	1G	1c	2f]
.	.	.	2e
1F	1F	1c	1f
=12	=12	=12	=12
2r	2r	2r	2r
2F	2c	2f	2a
2F	2c	2f	2a
2D	2d	2f	2a
=13	=13	=13	=13
2A	2c	2e	2a
2A	2c	2e	2a
1A	1e	1a	1cc
=14	=14	=14	=14
2B-y	2.d	2.f	2.b-y
2F	.	.	.
.	4c	4e	4a
2G	2B-y	2d	2g
2A	2A	2c	2f
=15	=15	=15	=15
2B-y	2G	2d	2g
2A	2F	1f	2a
1G	1B-y	.	1b-y
.	.	2e	.
=16	=16	=16	=16
1F	1c	1f	1a
2r	2r	2r	2r
2C	2e	2g	2cc
=17	=17	=17	=17
2D	2d	2f	2b-y
2F	2c	2f	2a
2C	2c	2e	2g
2C	2c	2e	2g
=18	=18	=18	=18
1D	1A	1d	1f
1C	1c	1e	1g
=19	=19	=19	=19
2D	2A	2d	2f
2AA	2A	2c	2e
1D	1A	1d	1f
=20	=20	=20	=20
1AA	1A	1c	1e
1AA	1A	1c	2r
.	.	.	2e
=21	=21	=21	=21
2A	2F	2c	2f
2A	2F	2c	2a
2F	2c	2f	2a
2C	2c	2e	2g
=22	=22	=22	=22
2F	2c	2f	2a
2F	2c	2f	2a
2r	2r	2r	2r
2F	2c	2f	2a
=23	=23	=23	=23
2B-y	2d	2.g	2b-y
2c	2e	.	2g
.	.	4e	.
2A	2c	2f	2a
2G	2d	2g	2b-y
=24	=24	=24	=24
1F	1f	1a	1cc
1F	2.c	1f	1a
.	4B-y	.	.
=25	=25	=25	=25
2A	2c	2e	2a
2B-y	2d	2d	2g
1A	1c	1e	1a
=26	=26	=26	=26
1D	1A	1d	1f
2r	2r	2r	2r
2D	2d	2f	2a
=27	=27	=27	=27
2A	2c	2e	2a
2D	2f	2d	2a
2A	2e	2c	2a
2D	2d	2f	2a
=28	=28	=28	=28
1A	1c	2e	1a
.	.	2f	.
1G	1d	2.g	1b-y
.	.	4f	.
=29	=29	=29	=29
1C	2c	1e	1cc
.	1G	.	.
2G	.	[1d	2b-y
2A	2F#i	.	2a
=30	=30	=30	=30
2B-y	2G	2d]	2g
2A	2A	2c	2f
1G	1B-y	1d	1g
=31	=31	=31	=31
1D	1A	1d	0f#X
2r	2r	2r	.
2D	2A	2d	.
=32	=32	=32	=32
2G	2B-y	2d	0r
2F	2A	2d	.
2G	2B-y	2e	.
2A	2c	2f	.
=33	=33	=33	=33
2.B-y	2.d	2.g	0r
4A	4c	4f	.
2G	2B-y	2e	.
2F	2A	[2d	.
=34	=34	=34	=34
1E	1G	4d]	0r
.	.	8c#iL	.
.	.	8BniJ	.
.	.	2c#i	.
1D	1A	1d	.
=35	=35	=35	=35
2r	2r	2r	2r
2D	2d	2f	2a
2G	2d	2g	2b-y
2A	2c	2f	2a
=36	=36	=36	=36
2G	2d	2g	2b-y
2E	2e	2g	2cc
2D	2.f	2.a	2.dd
2D	.	.	.
.	4e	4g	4cc
=37	=37	=37	=37
2D	2d	2.f	2b-y
2F	2c	.	2.a
.	.	4e	.
1G	1B-y	1d	.
.	.	.	8gL
.	.	.	8fJ
.	.	.	2g
=38	=38	=38	=38
0D	2A	1d	[0al
.	2A	.	.
.	2.d	2r	.
.	.	2A	.
.	4e	.	.
=39	=39	=39	=39
2r	2f	2d	0a_
2AA	2e	2c	.
2D	2.f	2d	.
2C	.	2e	.
.	4e	.	.
=40	=40	=40	=40
2D	2d	2.f	0a_
2E	4c	.	.
.	4B-y	4e	.
2.F	2A	2d	.
.	[2f	2c	.
4E	.	.	.
=41	=41	=41	=41
2D	2f]	2d	0a_
2C#i	2e	2e	.
1D	1d	1f	.
=42	=42	=42	=42
00AAl	00c#Xl	00el	00a]
==	==	==	==
*-	*-	*-	*-
!!!system-decoration: [*]
!!!RDF**kern: i = editorial accidental
!!!RDF**kern: l = terminal long
!!!ENC: Benjamin Ory
!!!END: 2021/1/27
!!!EED: Benjamin Ory
!!!EEV: 2021/04/29
!!!YEC: Copyright 2021 Benjamin Ory, All Rights Reserved
!!!ONB: Translated from MusicXML on 2021/04/29
